X:9
T:Loch Ruan
Z:Jack Campin, 2006, http://www.campin.me.uk/
M:C
L:1/8
Q:1/4=128
K:Hp
A>B|d2Aa f2ed|e2fg B2e>d|c2BA g2ec|d2 ef A2
A>B|d2Aa f2ed|e2fg B2e>d|c2BA g2ec|d2-d2 d2:|
f>g|a2fd Aafd|e2fg B2e>f|g2ec Agec|d2 ef A2
f>g|a2fd Aafd|e2fg B2e>d|c2BA g2ec|d2-d2 d2:|

